TGeo/prim_trd1_z.svg

<svg viewBox="-600 -400 1200 800" width="1200" height="800" xmlns="http://www.w3.org/2000/svg"><path style="fill:rgb(75,0,0)" d="M-188,129l294,236l-35,-414Z"/><path style="fill:rgb(96,0,0)" d="M71,-49l35,414l98,-85Z"/><path style="fill:rgb(78,0,0)" d="M-188,129l259,-178l-373,-241Z"/><path style="fill:rgb(143,0,0)" d="M-302,-290l620,72l-373,-198Z"/><path style="fill:rgb(103,0,0)" d="M71,-49l133,329l114,-498Z"/><path style="fill:rgb(156,0,0)" d="M-302,-290l373,241l247,-169Z"/></svg>

<svg xmlns="http://www.w3.org/2000/svg" viewBox="-600 -400 1200 800" width="1200" height="800" style="background:rgb(255,255,255)"><path style="fill:rgb(75,0,0)" d="M-188,129L106,365L71,-49z"/><path style="fill:rgb(96,0,0)" d="M71,-49L106,365L204,280z"/><path style="fill:rgb(78,0,0)" d="M-188,129L71,-49L-302,-290z"/><path style="fill:rgb(143,0,0)" d="M-302,-290L318,-218L-55,-416z"/><path style="fill:rgb(103,0,0)" d="M71,-49L204,280L318,-218z"/><path style="fill:rgb(156,0,0)" d="M-302,-290L71,-49L318,-218z"/></svg>
